images/monument.svg

<?xml version="1.0" encoding="UTF-8" standalone="no"?>
<!-- Created with Inkscape (http://www.inkscape.org/) -->

<svg xmlns:dc="http://purl.org/dc/elements/1.1/" xmlns:cc="http://creativecommons.org/ns#" xmlns:rdf="http://www.w3.org/1999/02/22-rdf-syntax-ns#" xmlns:svg="http://www.w3.org/2000/svg" xmlns="http://www.w3.org/2000/svg" xmlns:sodipodi="http://sodipodi.sourceforge.net/DTD/sodipodi-0.dtd" xmlns:inkscape="http://www.inkscape.org/namespaces/inkscape" width="50" height="50" viewBox="0 0 13.229167 13.229167" version="1.1" id="svg8" inkscape:version="0.92.3 (2405546, 2018-03-11)" sodipodi:docname="monument.svg">
  <defs id="defs2" />
  <sodipodi:namedview id="base" pagecolor="#ffffff" bordercolor="#666666" borderopacity="1.0" inkscape:pageopacity="0.0" inkscape:pageshadow="2" inkscape:zoom="22.627417" inkscape:cx="11.346568" inkscape:cy="30.813624" inkscape:document-units="mm" inkscape:current-layer="svg8" showgrid="true" inkscape:window-width="1881" inkscape:window-height="1051" inkscape:window-x="0" inkscape:window-y="0" inkscape:window-maximized="1" inkscape:pagecheckerboard="true" units="px">
    <inkscape:grid type="xygrid" id="grid13930" units="px" spacingx="0.26458334" spacingy="0.26458334" />
  </sodipodi:namedview>
  <metadata id="metadata5">
    <rdf:RDF>
      <cc:Work rdf:about="">
        <dc:format>image/svg+xml</dc:format>
        <dc:type rdf:resource="http://purl.org/dc/dcmitype/StillImage" />
        <dc:title />
      </cc:Work>
    </rdf:RDF>
  </metadata>
  <path style="opacity:0.5;fill:none;fill-opacity:1;fill-rule:evenodd;stroke:#ffffff;stroke-width:0.79374999;stroke-linecap:round;stroke-linejoin:round;stroke-miterlimit:4;stroke-dasharray:none;stroke-opacity:1;paint-order:normal" d="M 7.1437499,2.91042 L 6.7107013,5.29167 H 6.3499999 H 6.0854166 V 5.55625 H 6.3499999 V 6.35 H 6.0854166 V 6.61458 H 8.4666666 V 6.35 H 8.2020832 V 5.55625 H 8.4666666 V 5.29167 H 8.2020832 H 7.8413818 L 7.4083332,2.91042 Z" id="outline" inkscape:connector-curvature="0" />
  <path inkscape:connector-curvature="0" id="path1183" d="M 7.1437499,2.91042 L 6.7107013,5.29167 H 6.3499999 H 6.0854166 V 5.55625 H 6.3499999 V 6.35 H 6.0854166 V 6.61458 H 8.4666666 V 6.35 H 8.2020832 V 5.55625 H 8.4666666 V 5.29167 H 8.2020832 H 7.8413818 L 7.4083332,2.91042 Z" style="fill:#030303;fill-opacity:1;fill-rule:evenodd;stroke:none;stroke-width:0.26458332px;stroke-linecap:butt;stroke-linejoin:miter;stroke-opacity:1" />
</svg>

<svg xmlns="http://www.w3.org/2000/svg" width="50" height="50" viewBox="0 0 13.229 13.229">
    <path d="M7.144 2.91L6.71 5.292h-.626v.264h.265v.794h-.265v.265h2.382V6.35h-.265v-.794h.265v-.264h-.625L7.407 2.91z" opacity=".5" fill="none" stroke="#fff" stroke-width=".794" stroke-linecap="round" stroke-linejoin="round"/>
    <path d="M7.144 2.91L6.71 5.292h-.626v.264h.265v.794h-.265v.265h2.382V6.35h-.265v-.794h.265v-.264h-.625L7.407 2.91z" fill="#030303" fill-rule="evenodd"/>
</svg>
